public/library/reown-icon-dark.svg

<svg width="76" height="48" viewBox="0 0 76 48" fill="none" xmlns="http://www.w3.org/2000/svg">
<path d="M28 14C28 6.26801 34.268 0 42 0H62C69.732 0 76 6.26801 76 14V34C76 41.732 69.732 48 62 48H42C34.268 48 28 41.732 28 34V14Z" fill="white"/>
<path fill-rule="evenodd" clip-rule="evenodd" d="M53.7228 13.8398L46.5869 33.1598H48.9885L56.1244 13.8398H53.7228Z" fill="#202020"/>
<path d="M0 13C0 5.8203 5.8203 0 13 0C20.1797 0 26 5.8203 26 13V35C26 42.1797 20.1797 48 13 48C5.8203 48 0 42.1797 0 35V13Z" fill="white"/>
<path fill-rule="evenodd" clip-rule="evenodd" d="M11.5898 27.3394V30.1594H14.4098V27.3394H11.5898Z" fill="#202020"/>
</svg>

<svg xmlns="http://www.w3.org/2000/svg" width="76" height="48" fill="none" viewBox="0 0 76 48"><path fill="#fff" d="M28 14c0-7.732 6.268-14 14-14h20c7.732 0 14 6.268 14 14v20c0 7.732-6.268 14-14 14H42c-7.732 0-14-6.268-14-14z"/><path fill="#202020" fill-rule="evenodd" d="m53.723 13.84-7.136 19.32h2.401l7.136-19.32z" clip-rule="evenodd"/><path fill="#fff" d="M0 13C0 5.82 5.82 0 13 0s13 5.82 13 13v22c0 7.18-5.82 13-13 13S0 42.18 0 35z"/><path fill="#202020" fill-rule="evenodd" d="M11.59 27.34v2.82h2.82v-2.82z" clip-rule="evenodd"/></svg>
